public/assets/slack.svg

<svg width="142" height="50" viewBox="0 0 142 50" fill="none" xmlns="http://www.w3.org/2000/svg">
<rect x="0.5" y="0.5" width="141" height="49" rx="6.5" fill="white" stroke="url(#paint0_linear_2329_164)"/>
<rect x="13" y="5" width="40" height="40" rx="8" fill="white"/>
<g clip-path="url(#clip0_2329_164)">
<path fill-rule="evenodd" clip-rule="evenodd" d="M29.6801 12.5547C28.3042 12.5557 27.1908 13.67 27.1918 15.0431C27.1908 16.4161 28.3053 17.5304 29.6811 17.5315H32.1704V15.0441C32.1714 13.671 31.0569 12.5567 29.6801 12.5547C29.6811 12.5547 29.6811 12.5547 29.6801 12.5547ZM29.6801 19.1917H23.044C21.6682 19.1927 20.5537 20.307 20.5547 21.6801C20.5527 23.0532 21.6671 24.1675 23.043 24.1695H29.6801C31.0559 24.1685 32.1704 23.0542 32.1694 21.6811C32.1704 20.307 31.0559 19.1927 29.6801 19.1917Z" fill="#36C5F0"/>
<path fill-rule="evenodd" clip-rule="evenodd" d="M45.4428 21.6801C45.4438 20.307 44.3293 19.1927 42.9535 19.1917C41.5777 19.1927 40.4632 20.307 40.4642 21.6801V24.1695H42.9535C44.3293 24.1685 45.4438 23.0542 45.4428 21.6801ZM38.8057 21.6801V15.0431C38.8067 13.671 37.6932 12.5567 36.3174 12.5547C34.9416 12.5557 33.8271 13.67 33.8281 15.0431V21.6801C33.8261 23.0532 34.9406 24.1675 36.3164 24.1695C37.6922 24.1685 38.8067 23.0542 38.8057 21.6801Z" fill="#2EB67D"/>
<path fill-rule="evenodd" clip-rule="evenodd" d="M36.3174 37.444C37.6932 37.4429 38.8077 36.3286 38.8067 34.9556C38.8077 33.5825 37.6932 32.4682 36.3174 32.4672H33.8281V34.9556C33.8271 36.3276 34.9416 37.4419 36.3174 37.444ZM36.3174 30.8059H42.9545C44.3303 30.8049 45.4448 29.6906 45.4438 28.3175C45.4459 26.9444 44.3314 25.8302 42.9555 25.8281H36.3184C34.9426 25.8291 33.8281 26.9434 33.8291 28.3165C33.8281 29.6906 34.9416 30.8049 36.3174 30.8059Z" fill="#ECB22E"/>
<path fill-rule="evenodd" clip-rule="evenodd" d="M20.5547 28.3165C20.5537 29.6896 21.6682 30.8039 23.044 30.8049C24.4198 30.8039 25.5343 29.6896 25.5333 28.3165V25.8281H23.044C21.6682 25.8291 20.5537 26.9434 20.5547 28.3165ZM27.1918 28.3165V34.9535C27.1898 36.3266 28.3042 37.4409 29.6801 37.4429C31.0559 37.4419 32.1704 36.3276 32.1694 34.9546V28.3185C32.1714 26.9455 31.0569 25.8312 29.6811 25.8291C28.3042 25.8291 27.1908 26.9434 27.1918 28.3165Z" fill="#E01E5A"/>
</g>
<path d="M61.557 30.21C60.843 30.21 60.199 30.0887 59.625 29.846C59.0557 29.6033 58.5843 29.258 58.211 28.81C57.8423 28.3573 57.602 27.823 57.49 27.207L58.778 27.004C58.9413 27.6387 59.2797 28.1357 59.793 28.495C60.311 28.8497 60.92 29.027 61.62 29.027C62.0727 29.027 62.481 28.957 62.845 28.817C63.2137 28.6723 63.5053 28.467 63.72 28.201C63.9347 27.935 64.042 27.62 64.042 27.256C64.042 27.032 64.0023 26.8407 63.923 26.682C63.8483 26.5187 63.7433 26.381 63.608 26.269C63.4773 26.1523 63.328 26.0543 63.16 25.975C62.992 25.8957 62.817 25.8303 62.635 25.779L60.066 25.016C59.786 24.932 59.5153 24.827 59.254 24.701C58.9927 24.5703 58.7593 24.4093 58.554 24.218C58.3487 24.022 58.1853 23.7887 58.064 23.518C57.9427 23.2427 57.882 22.9183 57.882 22.545C57.882 21.9477 58.036 21.439 58.344 21.019C58.6567 20.5943 59.079 20.27 59.611 20.046C60.143 19.822 60.7427 19.7123 61.41 19.717C62.0867 19.7217 62.691 19.843 63.223 20.081C63.7597 20.3143 64.203 20.6503 64.553 21.089C64.9077 21.5277 65.1457 22.0527 65.267 22.664L63.944 22.895C63.874 22.4843 63.7177 22.132 63.475 21.838C63.237 21.5393 62.9383 21.3107 62.579 21.152C62.2197 20.9887 61.8253 20.9047 61.396 20.9C60.9853 20.8953 60.6143 20.9607 60.283 21.096C59.9517 21.2313 59.688 21.4203 59.492 21.663C59.296 21.901 59.198 22.1763 59.198 22.489C59.198 22.797 59.2867 23.0467 59.464 23.238C59.6413 23.4247 59.8583 23.574 60.115 23.686C60.3763 23.7933 60.6307 23.882 60.878 23.952L62.796 24.505C63.0153 24.5657 63.2673 24.6497 63.552 24.757C63.8413 24.8643 64.1213 25.016 64.392 25.212C64.6627 25.4033 64.8867 25.66 65.064 25.982C65.2413 26.2993 65.33 26.7007 65.33 27.186C65.33 27.6713 65.232 28.103 65.036 28.481C64.8447 28.859 64.5763 29.1763 64.231 29.433C63.8857 29.685 63.4843 29.8763 63.027 30.007C62.5697 30.1423 62.0797 30.21 61.557 30.21ZM66.9384 30V19.71H68.1844V30H66.9384ZM72.4337 30.21C71.869 30.21 71.3954 30.1073 71.0127 29.902C70.6347 29.692 70.3477 29.4167 70.1517 29.076C69.9604 28.7353 69.8647 28.362 69.8647 27.956C69.8647 27.5593 69.9394 27.2163 70.0887 26.927C70.2427 26.633 70.4574 26.3903 70.7327 26.199C71.008 26.003 71.337 25.849 71.7197 25.737C72.079 25.639 72.4804 25.555 72.9237 25.485C73.3717 25.4103 73.8244 25.3427 74.2817 25.282C74.739 25.2213 75.166 25.163 75.5627 25.107L75.1147 25.366C75.1287 24.694 74.9934 24.197 74.7087 23.875C74.4287 23.553 73.9434 23.392 73.2527 23.392C72.7954 23.392 72.394 23.497 72.0487 23.707C71.708 23.9123 71.4677 24.2483 71.3277 24.715L70.1447 24.358C70.3267 23.6953 70.679 23.175 71.2017 22.797C71.7244 22.419 72.4127 22.23 73.2667 22.23C73.9527 22.23 74.5407 22.3537 75.0307 22.601C75.5254 22.8437 75.88 23.2123 76.0947 23.707C76.202 23.9403 76.2697 24.1947 76.2977 24.47C76.3257 24.7407 76.3397 25.0253 76.3397 25.324V30H75.2337V28.187L75.4927 28.355C75.208 28.9663 74.809 29.4283 74.2957 29.741C73.787 30.0537 73.1664 30.21 72.4337 30.21ZM72.6227 29.167C73.0707 29.167 73.458 29.0877 73.7847 28.929C74.116 28.7657 74.382 28.5533 74.5827 28.292C74.7834 28.026 74.914 27.7367 74.9747 27.424C75.0447 27.1907 75.082 26.9317 75.0867 26.647C75.096 26.3577 75.1007 26.136 75.1007 25.982L75.5347 26.171C75.1287 26.227 74.7297 26.2807 74.3377 26.332C73.9457 26.3833 73.5747 26.4393 73.2247 26.5C72.8747 26.556 72.5597 26.6237 72.2797 26.703C72.0744 26.7683 71.8807 26.8523 71.6987 26.955C71.5214 27.0577 71.3767 27.1907 71.2647 27.354C71.1574 27.5127 71.1037 27.711 71.1037 27.949C71.1037 28.1543 71.155 28.3503 71.2577 28.537C71.365 28.7237 71.5284 28.8753 71.7477 28.992C71.9717 29.1087 72.2634 29.167 72.6227 29.167ZM81.3447 30.21C80.5794 30.21 79.9284 30.0397 79.3917 29.699C78.8597 29.3537 78.4537 28.88 78.1737 28.278C77.8937 27.676 77.749 26.99 77.7397 26.22C77.749 25.4313 77.896 24.7383 78.1807 24.141C78.47 23.539 78.883 23.07 79.4197 22.734C79.9564 22.398 80.6027 22.23 81.3587 22.23C82.1567 22.23 82.8427 22.426 83.4167 22.818C83.9954 23.21 84.3827 23.7467 84.5787 24.428L83.3467 24.799C83.188 24.3603 82.929 24.0197 82.5697 23.777C82.215 23.5343 81.8067 23.413 81.3447 23.413C80.8267 23.413 80.3997 23.5343 80.0637 23.777C79.7277 24.015 79.478 24.3463 79.3147 24.771C79.1514 25.191 79.0674 25.674 79.0627 26.22C79.072 27.06 79.2657 27.739 79.6437 28.257C80.0264 28.7703 80.5934 29.027 81.3447 29.027C81.8394 29.027 82.25 28.915 82.5767 28.691C82.9034 28.4623 83.1507 28.1333 83.3187 27.704L84.5787 28.033C84.3174 28.7377 83.909 29.2767 83.3537 29.65C82.7984 30.0233 82.1287 30.21 81.3447 30.21ZM86.0003 30L86.0073 19.92H87.2673V26.08L90.4383 22.44H92.0553L88.7163 26.22L92.4473 30H90.7043L87.2673 26.36V30H86.0003Z" fill="#475367"/>
<defs>
<linearGradient id="paint0_linear_2329_164" x1="71" y1="1" x2="71" y2="49" gradientUnits="userSpaceOnUse">
<stop stop-color="#E4E7EC"/>
<stop offset="1" stop-color="white"/>
</linearGradient>
<clipPath id="clip0_2329_164">
<rect width="24.8889" height="24.8889" fill="white" transform="translate(20.5547 12.5547)"/>
</clipPath>
</defs>
</svg>

<svg xmlns="http://www.w3.org/2000/svg" width="142" height="50" fill="none" xmlns:v="https://vecta.io/nano"><g fill="#fff"><rect x=".5" y=".5" width="141" height="49" rx="6.5" stroke="url(#A)"/><rect x="13" y="5" width="40" height="40" rx="8"/></g><g clip-path="url(#B)" fill-rule="evenodd"><path d="M29.68 12.555a2.49 2.49 0 0 0-2.488 2.488 2.49 2.49 0 0 0 2.489 2.488h2.489v-2.487a2.49 2.49 0 0 0-2.49-2.489zm0 6.637h-6.636a2.49 2.49 0 0 0-2.489 2.488 2.49 2.49 0 0 0 2.488 2.489h6.637a2.49 2.49 0 0 0 2.489-2.488 2.49 2.49 0 0 0-2.489-2.489z" fill="#36c5f0"/><path d="M45.443 21.68a2.49 2.49 0 0 0-2.489-2.488 2.49 2.49 0 0 0-2.489 2.488v2.489h2.489a2.49 2.49 0 0 0 2.489-2.489zm-6.637 0v-6.637a2.49 2.49 0 0 0-2.488-2.488 2.49 2.49 0 0 0-2.489 2.488v6.637a2.49 2.49 0 0 0 2.488 2.489 2.49 2.49 0 0 0 2.489-2.489z" fill="#2eb67d"/><path d="M36.317 37.444a2.49 2.49 0 0 0 2.489-2.488 2.49 2.49 0 0 0-2.489-2.488h-2.489v2.488a2.49 2.49 0 0 0 2.489 2.488zm0-6.638h6.637a2.49 2.49 0 0 0 2.489-2.488 2.49 2.49 0 0 0-2.488-2.489h-6.637a2.49 2.49 0 0 0-2.489 2.488 2.49 2.49 0 0 0 2.488 2.489z" fill="#ecb22e"/><path d="M20.555 28.317a2.49 2.49 0 0 0 2.489 2.488 2.49 2.49 0 0 0 2.489-2.488v-2.488h-2.489a2.49 2.49 0 0 0-2.489 2.488zm6.637 0v6.637a2.49 2.49 0 0 0 2.488 2.489 2.49 2.49 0 0 0 2.489-2.488v-6.636a2.49 2.49 0 0 0-2.488-2.489c-1.377 0-2.49 1.114-2.489 2.487z" fill="#e01e5a"/></g><path d="M61.557 30.21c-.714 0-1.358-.121-1.932-.364a3.69 3.69 0 0 1-1.414-1.036c-.369-.453-.609-.987-.721-1.603l1.288-.203c.163.635.502 1.132 1.015 1.491s1.127.532 1.827.532a3.39 3.39 0 0 0 1.225-.21c.369-.145.66-.35.875-.616s.322-.581.322-.945c0-.224-.04-.415-.119-.574a1.15 1.15 0 0 0-.315-.413 1.86 1.86 0 0 0-.448-.294 3.37 3.37 0 0 0-.525-.196l-2.569-.763c-.28-.084-.551-.189-.812-.315s-.495-.292-.7-.483a2.2 2.2 0 0 1-.49-.7c-.121-.275-.182-.6-.182-.973 0-.597.154-1.106.462-1.526s.735-.749 1.267-.973 1.132-.334 1.799-.329c.677.005 1.281.126 1.813.364a3.41 3.41 0 0 1 1.33 1.008c.355.439.593.964.714 1.575l-1.323.231a2.21 2.21 0 0 0-.469-1.057 2.33 2.33 0 0 0-.896-.686c-.359-.163-.754-.247-1.183-.252-.411-.005-.782.061-1.113.196s-.595.324-.791.567a1.26 1.26 0 0 0-.294.826c0 .308.089.558.266.749s.394.336.651.448a7.11 7.11 0 0 0 .763.266l1.918.553c.219.061.471.145.756.252s.569.259.84.455.495.448.672.77.266.719.266 1.204-.098.917-.294 1.295a2.68 2.68 0 0 1-.805.952c-.345.252-.747.443-1.204.574s-.947.203-1.47.203zm5.381-.21V19.71h1.246V30h-1.246zm5.495.21c-.565 0-1.038-.103-1.421-.308s-.665-.485-.861-.826a2.25 2.25 0 0 1-.287-1.12c0-.397.075-.74.224-1.029a2.01 2.01 0 0 1 .644-.728c.275-.196.604-.35.987-.462a11.29 11.29 0 0 1 1.204-.252l1.358-.203 1.281-.175-.448.259c.014-.672-.121-1.169-.406-1.491s-.765-.483-1.456-.483c-.457 0-.859.105-1.204.315s-.581.541-.721 1.008l-1.183-.357c.182-.663.534-1.183 1.057-1.561s1.211-.567 2.065-.567c.686 0 1.274.124 1.764.371s.849.611 1.064 1.106c.107.233.175.488.203.763s.042.555.042.854V30h-1.106v-1.813l.259.168c-.285.611-.684 1.073-1.197 1.386s-1.129.469-1.862.469zm.189-1.043c.448 0 .835-.079 1.162-.238s.597-.376.798-.637.331-.555.392-.868c.07-.233.107-.492.112-.777l.014-.665.434.189-1.197.161-1.113.168c-.35.056-.665.124-.945.203-.205.065-.399.149-.581.252a1.32 1.32 0 0 0-.434.399c-.107.159-.161.357-.161.595 0 .205.051.401.154.588a1.19 1.19 0 0 0 .49.455c.224.117.516.175.875.175zm8.722 1.043c-.765 0-1.416-.17-1.953-.511s-.938-.819-1.218-1.421-.425-1.288-.434-2.058c.009-.789.156-1.482.441-2.079s.702-1.071 1.239-1.407 1.183-.504 1.939-.504c.798 0 1.484.196 2.058.588a2.83 2.83 0 0 1 1.162 1.61l-1.232.371c-.159-.439-.418-.779-.777-1.022s-.763-.364-1.225-.364c-.518 0-.945.121-1.281.364s-.586.569-.749.994-.247.903-.252 1.449c.009.84.203 1.519.581 2.037s.95.77 1.701.77c.495 0 .905-.112 1.232-.336s.574-.558.742-.987l1.26.329c-.261.705-.67 1.244-1.225 1.617s-1.225.56-2.009.56zM86 30l.007-10.08h1.26v6.16l3.171-3.64h1.617l-3.339 3.78L92.447 30h-1.743l-3.437-3.64V30H86z" fill="#475367"/><defs><linearGradient id="A" x1="71" y1="1" x2="71" y2="49" gradientUnits="userSpaceOnUse"><stop stop-color="#e4e7ec"/><stop offset="1" stop-color="#fff"/></linearGradient><clipPath id="B"><path fill="#fff" transform="translate(20.555 12.555)" d="M0 0h24.889v24.889H0z"/></clipPath></defs></svg>
